packages/amis-editor/src/icons/form/formula.svg

<?xml version="1.0" encoding="UTF-8"?>
<svg width="16px" height="16px" viewBox="0 0 16 16" version="1.1" xmlns="http://www.w3.org/2000/svg" xmlns:xlink="http://www.w3.org/1999/xlink">
    <g id="formula" stroke="none" stroke-width="1" fill="none" fill-rule="evenodd">
        <g id="编组"></g>
        <g id="背景层源件">
            <g id="编组-2">
                <rect id="填色" x="0" y="0" width="16" height="16"></rect>
                <polygon id="边框" stroke="currentColor" stroke-linejoin="round" points="2 2 8.0012 2 14 2 14 14 2 14"></polygon>
                <path d="M7.1751718,4.45633542 C7.60924166,4.17835264 8.3252388,4.22909125 8.6671506,4.26741509 C8.81111347,4.28360826 9.12794084,4.31275597 9.09522201,4.62474441 C9.06959225,4.87411925 8.70150538,4.84874995 8.60389419,4.84874995 C8.0073208,4.84874995 7.36166915,4.54323878 7.01539483,5.80090844 L7.01539483,5.80090844 L6.85343661,6.59005567 L7.67249807,6.59005567 C7.8230047,6.59005567 7.94515501,6.71096468 7.94515501,6.85994186 C7.94515501,7.00891904 7.8230047,7.12982806 7.67249807,7.12982806 L7.67249807,7.12982806 L6.73728475,7.12982806 L6.001111,10.7090588 C6.001111,10.7090588 5.93022019,11.2844561 5.5730396,11.2623254 C5.5561858,11.26128 5.54034416,11.2592996 5.52545987,11.2564631 L5.56521029,11.2430535 C5.53430007,11.2561818 5.50106164,11.2629478 5.46747899,11.2629478 L4.47124867,11.2629478 C4.34190551,11.2629478 4.23705215,11.1580945 4.23705215,11.0287513 L4.23705215,11.0261898 C4.2369092,10.8974298 4.33465452,10.7897039 4.46280835,10.7772245 C4.71628018,10.7525418 4.93703598,10.712122 5.12507575,10.6559649 C5.24601401,10.6198473 5.33214614,10.571486 5.38347213,10.5108808 L6.08127214,7.12982806 L4.97319432,7.12982806 C4.8783097,7.12982806 4.79627026,7.08136849 4.74856539,7.00827931 L4.72705199,6.96505215 L4.73683182,6.94874317 C4.75310987,6.93361406 4.77915475,6.9211161 4.78892157,6.90335583 C4.77427133,6.88855562 4.72299548,6.87572876 4.72299548,6.85994186 L4.72205199,6.95505215 L4.71956024,6.94921672 L4.7054452,6.88315207 C4.7174421,6.6305386 4.83086739,6.59005567 4.97319432,6.59005567 L4.97319432,6.59005567 L6.19851463,6.59005567 L6.36919787,5.78471527 C6.49025756,5.21471563 6.74001132,4.73539775 7.1751718,4.45633542 Z M11.1292428,6.68505561 C11.2132212,6.72985672 11.2568463,6.78167487 11.2622994,6.83997028 C11.2672072,6.8982657 11.244304,6.95548157 11.1919539,7.01215767 L10.2065717,8.07011155 L11.1788664,9.38985504 C11.209404,9.42925842 11.2170384,9.47675839 11.1995883,9.52857654 C11.1843195,9.58147424 11.11561,9.61817876 11.0245425,9.66675827 C10.9258407,9.71803665 10.8402265,9.7131787 10.7791513,9.69644575 C10.7197121,9.67917304 10.6662713,9.64030943 10.6215556,9.58147424 L9.80140349,8.50732719 L8.80620565,9.57607651 C8.68732722,9.7034628 8.55263469,9.72235483 8.39885617,9.63221284 C8.33559976,9.59550832 8.21999321,9.45948568 8.20636037,9.39795162 C8.19327283,9.33695734 8.21781196,9.27272443 8.28106837,9.20417334 L9.3815118,8.01883318 L8.57990038,6.96897588 C8.54663623,6.92093614 8.54336435,6.86479981 8.56953942,6.80110667 C8.59462386,6.73741353 8.65406307,6.69962946 8.71731948,6.66238517 C8.8083869,6.61164656 8.89181993,6.61002725 8.9534404,6.6148852 C9.01560618,6.6186636 9.07177351,6.65374881 9.12357833,6.7185215 L9.7899519,7.57837891 L10.5964711,6.70880559 C10.6662713,6.63215791 10.7453418,6.6051693 10.8216858,6.5835784 C10.8974844,6.5619875 11.0474457,6.63971473 11.1292428,6.68505561 Z" id="形状结合" fill="currentColor" fill-rule="nonzero"></path>
            </g>
            <path d="M0,0 L14.5,0 C15.3284271,-5.96268804e-16 16,0.671572875 16,1.5 L16,1.5 L16,14.5 C16,15.3284271 15.3284271,16 14.5,16 L14.5,16 L0,16 L0,15.5 L14.5,15.5 C15.0522847,15.5 15.5,15.0522847 15.5,14.5 L15.5,1.5 C15.5,0.94771525 15.0522847,0.5 14.5,0.5 L0,0.5 L0,0 Z" id="边框"></path>
        </g>
    </g>
</svg>

<svg width="16" height="16" xmlns="http://www.w3.org/2000/svg"><g fill="none" fill-rule="evenodd"><path d="M0 0h16v16H0z"/><path stroke="currentColor" stroke-linejoin="round" d="M2 2h12v12H2z"/><path d="M7.175 4.456c.434-.278 1.15-.227 1.492-.189.144.017.46.046.428.358-.025.25-.393.224-.491.224-.597 0-1.242-.306-1.589.952l-.162.79h.82c.15 0 .272.12.272.269 0 .149-.122.27-.273.27h-.935l-.736 3.58s-.07.574-.428.552a.38.38 0 0 1-.048-.006l.04-.013a.25.25 0 0 1-.098.02h-.996a.234.234 0 0 1-.234-.234v-.003a.25.25 0 0 1 .226-.249 3.49 3.49 0 0 0 .662-.121.53.53 0 0 0 .258-.145l.698-3.381H4.973a.267.267 0 0 1-.224-.122l-.022-.043.01-.016c.016-.015.042-.028.052-.046-.015-.014-.066-.027-.066-.043v.095L4.72 6.95l-.015-.066c.012-.252.126-.293.268-.293H6.2l.17-.805c.121-.57.371-1.05.806-1.329Zm3.954 2.23c.084.044.128.096.133.154.005.058-.018.115-.07.172l-.985 1.058.972 1.32c.03.04.038.087.02.139-.015.052-.083.09-.174.138a.33.33 0 0 1-.246.03.307.307 0 0 1-.157-.116l-.82-1.074-.996 1.07c-.119.126-.253.145-.407.055a.576.576 0 0 1-.193-.234c-.013-.061.012-.125.075-.194l1.1-1.185-.801-1.05c-.033-.048-.037-.104-.01-.168.025-.064.084-.101.147-.139a.4.4 0 0 1 .236-.047c.063.004.119.039.17.104l.667.86.806-.87a.44.44 0 0 1 .226-.125c.075-.022.225.056.307.101Z" fill="currentColor" fill-rule="nonzero"/><path d="M0 0h14.5A1.5 1.5 0 0 1 16 1.5v13a1.5 1.5 0 0 1-1.5 1.5H0v-.5h14.5a1 1 0 0 0 1-1v-13a1 1 0 0 0-1-1H0V0Z"/></g></svg>
